src/images/svg/symbols/markets-stocks-and-indices/american-stocks/stocks-hp-inc.svg

<svg width="32" height="32" viewBox="0 0 32 32" fill="none" xmlns="http://www.w3.org/2000/svg">
<path fill-rule="evenodd" clip-rule="evenodd" d="M16 32C24.8366 32 32 24.8366 32 16C32 7.16344 24.8366 0 16 0C7.16344 0 0 7.16344 0 16C0 24.8366 7.16344 32 16 32ZM21.3648 12.3325H23.2723L20.6018 19.675H18.7018L21.3648 12.3325ZM15.6722 28H16.0312C19.2055 28 22.2498 26.7357 24.4944 24.4853C26.739 22.2348 28 19.1826 28 16C28 12.8174 26.739 9.76516 24.4944 7.51472C22.2498 5.26428 19.2055 4 16.0312 4H15.4851L13.039 10.75H15.171C15.4396 10.7202 15.7113 10.7639 15.9571 10.8764C16.2029 10.989 16.4138 11.1662 16.5672 11.3893C16.7207 11.6124 16.811 11.8729 16.8286 12.1433C16.8461 12.4137 16.7903 12.6838 16.6671 12.925L13.6749 21.25H11.139L14.378 12.3325H12.4705L9.23146 21.25H6.69557L10.5106 10.75L12.7847 4.4125C10.2214 5.12175 7.96673 6.66662 6.37643 8.80329C4.78613 10.94 3.95079 13.5468 4.00224 16.2123C4.0537 18.8778 4.98902 21.4502 6.6606 23.5236C8.33217 25.597 10.6448 27.0532 13.2335 27.6625L15.4777 21.55L19.39 10.75H24.0877C24.3563 10.7202 24.628 10.7639 24.8738 10.8764C25.1197 10.989 25.3305 11.1662 25.484 11.3893C25.6374 11.6124 25.7277 11.8729 25.7453 12.1433C25.7629 12.4137 25.7071 12.6838 25.5838 12.925L22.9282 20.2375C22.8073 20.5256 22.6076 20.7735 22.3521 20.9526C22.0966 21.1318 21.7959 21.2349 21.4845 21.25H18.1183L15.6722 28Z" fill="#00A1DD"/>
</svg>

<svg width="32" height="32" fill="none" xmlns="http://www.w3.org/2000/svg"><path fill-rule="evenodd" clip-rule="evenodd" d="M16 32c8.837 0 16-7.163 16-16S24.837 0 16 0 0 7.163 0 16s7.163 16 16 16Zm5.365-19.668h1.907l-2.67 7.343h-1.9l2.663-7.343ZM15.672 28h.36c3.174 0 6.218-1.264 8.462-3.515A12.016 12.016 0 0 0 28 16c0-3.183-1.261-6.235-3.506-8.485A11.953 11.953 0 0 0 16.031 4h-.546l-2.446 6.75h2.132a1.493 1.493 0 0 1 1.396.64 1.502 1.502 0 0 1 .1 1.535l-2.992 8.325h-2.536l3.239-8.918H12.47L9.232 21.25H6.696l3.815-10.5 2.274-6.338a11.968 11.968 0 0 0-6.409 4.391 12.021 12.021 0 0 0 .285 14.72 11.965 11.965 0 0 0 6.572 4.14l2.245-6.113 3.912-10.8h4.698a1.493 1.493 0 0 1 1.396.64 1.503 1.503 0 0 1 .1 1.535l-2.656 7.313a1.655 1.655 0 0 1-1.444 1.012h-3.366L15.672 28Z" fill="#00A1DD"/></svg>
